X: 1923
T: Arran Ceilidh, The
R: reel
M: 4/4
K: Amajor
af|eA (3AAA cABc|EFAc BABc|ec (3ccc fece|fefg a2:|
ag|f3a fecf|efec BABc|efec BABc|EFAc BAag|
f3a fecf|efec BABc|ec (3ccc fece|fefg a2ag|
f3a fecf|efec BABc|EFEC B,A,B,C|EA (3AAA cAag|
f3a fecf|efec BABc|ec (3ccc fece|agfe f2||

